X:3
T:Tumblers Hornpipe. JBi.03
M:3/2
L:1/8
Q:1/2=100
S:James Biggins MS, Leeds, 1779.
R:.3/2 HP
O:England
A:Yorkshire
Z:vmp.Nick Barber & Chris Partington
K:G
â€œ_no key sig.in msâ€G3A BABcd4|E2ed cBAGF2D2|\
EGFA GBAcB3A|G2gf edcB A2G2:|!
|:g2agf2gf~e4|E2AB cBAGF2ED|\
EGFA GBAcB3A|G2gf edcB~A2G2:|!
|:D2G2GAGFE4|E2AB cBAGF2ED|\
GFGA BABdB3A|G2gf edcB~A2G2:|

